X: 36044
T: Scarlet Clog
R: hornpipe
M: 4/4
K: Fdorian
(3BAB|:c>B G>E B,>EF>G|A/D/ F3F2 B<df|a>gf>e d>cB>A|G/B/ e4 B (3BAB|
c>BG>E B,>ED>E|F>DF>B d>f (3bag|f>g (3fdB F>G (3FDB,|1 A,2F>A, B,>B (3BAB:|2 A,2F>A, A, B<df/||
|:a>B (3B=AB f>dB>_A|G>Be>c B>G E2|D>FB>A G>Be>g|(3fgf (3edc B2 (3BAB|
a>B (3B=AB f>dB>_A|G>Be>d c>BA>G|F>ED>C B,>AG>F|1 E2G2 EB<df/:|2 E2G2E2||

